**kern	**kern	**dynam
*part1	*part1	*part1
*staff2	*staff1	*
*I"Piano	*	*
*clefF4	*clefG2	*
*k[b-e-a-]	*k[b-e-a-]	*
*M3/4	*M3/4	*
=1	=1	=1
!	!LO:TX:a:B:t=Andante con moto	!
4EE- 4E-	4G 4B- 4e-	p <
2BBB- 2BB-	2B- 2d 2f	.
=	=	=
4EE- 4E-	4B- 4e- 4g	.
2FF 2F	2B- 2d 2a-	.
=	=	=
4GG 4G	4B- 4e- 4b-	.
2AA- 2A-	2c 2e- 2cc	.
=	=	=
4BB- 4B-	4d 4g 4dd	[ f
2C 2c	2e- 2g 2ee-	.
=	=	=
4AA- 4A-	4c 4e- 4cc	>
2GG 2G	2B- 2e- 2b-	.
=	=	=
4FF 4F	4B- 4d 4a-	.
2EE- 2E-	2B- 2e- 2g	.
=	=	=
*	*^	*
[2BBB- [2BB-	2B- [2f	4e-	.
.	.	[4d	.
8BBB-L] 8BB-]	8fL]	8d]	.
8EE-J 8E-	8GJ 8B- 8e-	8ryy	.
*	*v	*v	*
=	=	=
*-	*-	*-
!!!system-decoration: {(s1,s2)}
